X:090 
T:John Kelly's Favorite (reel) 
F:file ID: cre.4/090john_k
B:CRE4.163 (Rogha Sheain Ui Cheallaigh)
N:I couldn't get the original second part of this tune
to make any sense, so I concluded that there may have
been some 'scribal errors' involved when CRE's editors
added it. I re-did the second part but I have left their
version at the end of the file in case you want to give
it a try. 
L:1/8
Q:180
M:4/4
R:reel
K:C
"G modal"
A|B2cA dcAF|G2AG FEFG|(3Bcd BG ABcd|f2dc AGGA|
dcAF G2 AG|FEFG FDCF|(3Bcd AF GFDA|fefc AGG:|
A|dgge f3g|agfd cABA|GAfg fgag|fdfa gagf|
defg afbg|fefc ABcA|G2 GF Addd|fefc AGG:|

%%%

